svg/transport/gas_station_line.svg

<?xml version="1.0" encoding="UTF-8"?>
<svg width="24px" height="24px" viewBox="0 0 24 24" version="1.1" xmlns="http://www.w3.org/2000/svg" xmlns:xlink="http://www.w3.org/1999/xlink">
    <title>gas_station_line</title>
    <g id="Icon" stroke="none" stroke-width="1" fill="none" fill-rule="evenodd">
        <g id="Transport" transform="translate(-672.000000, 0.000000)">
            <g id="gas_station_line" transform="translate(672.000000, 0.000000)">
                <path d="M24,0 L24,24 L0,24 L0,0 L24,0 Z M12.5935,23.2578 L12.5819,23.2595 L12.5109,23.295 L12.4919,23.2987 L12.4767,23.295 L12.4057,23.2595 C12.3958,23.2564 12.387,23.259 12.3821,23.2649 L12.378,23.2758 L12.3609,23.7031 L12.3659,23.7235 L12.3769,23.7357 L12.4805,23.8097 L12.4953,23.8136 L12.5071,23.8097 L12.6107,23.7357 L12.6233,23.7197 L12.6267,23.7031 L12.6096,23.2758 C12.6076,23.2657 12.601,23.2593 12.5935,23.2578 Z M12.8584,23.1453 L12.8445,23.1473 L12.6598,23.2397 L12.6499,23.2499 L12.6472,23.2611 L12.6651,23.6906 L12.6699,23.7034 L12.6784,23.7105 L12.8793,23.8032 C12.8914,23.8069 12.9022,23.803 12.9078,23.7952 L12.9118,23.7812 L12.8777,23.1665 C12.8753,23.1546 12.8674,23.147 12.8584,23.1453 Z M12.143,23.1473 C12.1332,23.1424 12.1222,23.1453 12.1156,23.1526 L12.1099,23.1665 L12.0758,23.7812 C12.0751,23.7927 12.0828,23.8019 12.0926,23.8046 L12.1083,23.8032 L12.3092,23.7105 L12.3186,23.7024 L12.3225,23.6906 L12.3404,23.2611 L12.3372,23.2485 L12.3278,23.2397 L12.143,23.1473 Z" id="MingCute" fill-rule="nonzero"></path>
                <path d="M13,3 C14.0543909,3 14.9181678,3.81587733 14.9945144,4.85073759 L15,5 L15,12 L16,12 C17.0543909,12 17.9181678,12.81585 17.9945144,13.8507339 L18,14 L18,16.5 C18,16.7761 18.2239,17 18.5,17 C18.7454222,17 18.9496,16.8230914 18.9919429,16.5898645 L19,16.5 L19,12 C18.9464,12 18.8927,11.9978 18.839,11.9935 C18.4945,11.9657 18.1631,11.849 17.877,11.655 C17.591,11.4609 17.3602,11.196 17.2071,10.8862 C17.0539,10.5764 16.9837,10.2321 17.0032,9.88702 C17.0227,9.54194 17.1313,9.20781 17.3185,8.91722 L17.3939,8.80814 L16.2929,7.70711 C15.9024,7.31658 15.9024,6.68342 16.2929,6.29289 C16.6533615,5.93241 17.2206207,5.90468077 17.6128973,6.20970231 L17.7071,6.29289 L20.4142,9 C20.7476222,9.33339556 20.9511481,9.77238321 20.9922598,10.2383509 L21,10.4142 L21,16.5 C21,17.8807 19.8807,19 18.5,19 C17.174528,19 16.0899622,17.9684531 16.0053177,16.6643744 L16,16.5 L16,14 L15,14 L15,19 C15.5523,19 16,19.4477 16,20 C16,20.51285 15.613973,20.9355092 15.1166239,20.9932725 L15,21 L3,21 C2.44772,21 2,20.5523 2,20 C2,19.48715 2.38604429,19.0644908 2.88337975,19.0067275 L3,19 L3,5 C3,3.94563773 3.81587733,3.08183483 4.85073759,3.00548573 L5,3 L13,3 Z M13,13 L5,13 L5,19 L13,19 L13,13 Z M13,5 L5,5 L5,11 L13,11 L13,5 Z" id="形状" fill="#09244B"></path>
            </g>
        </g>
    </g>
</svg>

<svg xmlns="http://www.w3.org/2000/svg" width="24" height="24"><g fill="none" fill-rule="evenodd"><path d="M24 0v24H0V0h24ZM12.594 23.258l-.012.002-.071.035-.02.004-.014-.004-.071-.036c-.01-.003-.019 0-.024.006l-.004.01-.017.428.005.02.01.013.104.074.015.004.012-.004.104-.074.012-.016.004-.017-.017-.427c-.002-.01-.009-.017-.016-.018Zm.264-.113-.014.002-.184.093-.01.01-.003.011.018.43.005.012.008.008.201.092c.012.004.023 0 .029-.008l.004-.014-.034-.614c-.003-.012-.01-.02-.02-.022Zm-.715.002a.023.023 0 0 0-.027.006l-.006.014-.034.614c0 .012.007.02.017.024l.015-.002.201-.093.01-.008.003-.011.018-.43-.003-.012-.01-.01-.184-.092Z"/><path fill="#09244B" d="M13 3a2 2 0 0 1 1.995 1.85L15 5v7h1a2 2 0 0 1 1.995 1.85L18 14v2.5a.5.5 0 0 0 .992.09L19 16.5V12a2.017 2.017 0 0 1-1.123-.345 2 2 0 0 1-.558-2.738l.075-.109-1.101-1.1a1 1 0 0 1 1.32-1.498l.094.083L20.414 9a2 2 0 0 1 .578 1.238l.008.176V16.5a2.5 2.5 0 0 1-4.995.164L16 16.5V14h-1v5a1 1 0 0 1 .117 1.993L15 21H3a1 1 0 0 1-.117-1.993L3 19V5a2 2 0 0 1 1.85-1.995L5 3h8Zm0 10H5v6h8v-6Zm0-8H5v6h8V5Z"/></g></svg>
